linkedin.svg

<svg class="icon">
    <use href="#inbug-blue-28" data-size="large"></use>
    <symbol id="inbug-blue-28">
        <style type="text/css">.st0{fill:#0a66c2}</style>
        <title>LinkedIn logo</title>
        <path class="st0"
            d="m25.9 0h-23.8c-1.2 0-2.1 0.9-2.1 2v24c0 1.1 0.9 2 2.1 2h23.9c1.1 0 2.1-0.9 2.1-2v-24c-0.1-1.1-1-2-2.2-2zm-17.6 23.9h-4.1v-13.4h4.2v13.4zm-2.1-15.2c-1.3 0-2.4-1.1-2.4-2.4s1.1-2.4 2.4-2.4 2.4 1.1 2.4 2.4-1 2.4-2.4 2.4zm17.7 15.2h-4.1v-6.5c0-1.5 0-3.5-2.2-3.5s-2.5 1.7-2.5 3.4v6.6h-4.1v-13.4h4v1.8h0.1c0.6-1 1.9-2.2 3.9-2.2 4.2 0 5 2.8 5 6.4v7.4z"></path>
    </symbol>
</svg>

<?xml version="1.0" encoding="UTF-8" standalone="no"?>
<svg
   class="icon"
   version="1.1"
   id="svg1"
   sodipodi:docname="linkedin.svg"
   width="28.1"
   height="28"
   inkscape:export-filename="linkedin.png"
   inkscape:export-xdpi="191.31673"
   inkscape:export-ydpi="191.31673"
   inkscape:version="1.4-beta3 (01c8a1ca, 2024-08-28)"
   xmlns:inkscape="http://www.inkscape.org/namespaces/inkscape"
   xmlns:sodipodi="http://sodipodi.sourceforge.net/DTD/sodipodi-0.dtd"
   xmlns="http://www.w3.org/2000/svg"
   xmlns:svg="http://www.w3.org/2000/svg">
  <defs
     id="defs1" />
  <sodipodi:namedview
     id="namedview1"
     pagecolor="#ffffff"
     bordercolor="#000000"
     borderopacity="0.25"
     inkscape:showpageshadow="2"
     inkscape:pageopacity="0.0"
     inkscape:pagecheckerboard="0"
     inkscape:deskcolor="#d1d1d1"
     showgrid="false"
     inkscape:zoom="1"
     inkscape:cx="11"
     inkscape:cy="15.5"
     inkscape:window-width="1512"
     inkscape:window-height="916"
     inkscape:window-x="0"
     inkscape:window-y="38"
     inkscape:window-maximized="0"
     inkscape:current-layer="svg1">
    <inkscape:grid
       id="grid1"
       units="px"
       originx="0"
       originy="0"
       spacingx="1"
       spacingy="1"
       empcolor="#0099e5"
       empopacity="0.30196078"
       color="#0099e5"
       opacity="0.14902"
       empspacing="5"
       enabled="true"
       visible="false" />
  </sodipodi:namedview>
  <path
     class="st0"
     d="M 25.9,0 H 2.1 C 0.9,0 0,0.9 0,2 v 24 c 0,1.1 0.9,2 2.1,2 H 26 c 1.1,0 2.1,-0.9 2.1,-2 V 2 C 28,0.9 27.1,0 25.9,0 Z M 8.3,23.9 H 4.2 V 10.5 H 8.4 V 23.9 Z M 6.2,8.7 C 4.9,8.7 3.8,7.6 3.8,6.3 3.8,5 4.9,3.9 6.2,3.9 c 1.3,0 2.4,1.1 2.4,2.4 0,1.3 -1,2.4 -2.4,2.4 z m 17.7,15.2 h -4.1 v -6.5 c 0,-1.5 0,-3.5 -2.2,-3.5 -2.2,0 -2.5,1.7 -2.5,3.4 v 6.6 H 11 V 10.5 h 4 v 1.8 h 0.1 c 0.6,-1 1.9,-2.2 3.9,-2.2 4.2,0 5,2.8 5,6.4 v 7.4 z"
     id="path1"
     style="fill:#0a66c2" />
</svg>
